packages/styles/assets/img/shared/flags/1x1/by.svg

<svg xmlns="http://www.w3.org/2000/svg" height="512" width="512" viewBox="0 0 512 512"><defs><clipPath id="a"><path fill-opacity=".67" d="M0 0h496.06v496.06h-496.06z"/></clipPath></defs><g fill-rule="evenodd" clip-path="url(#a)"><path fill="#b20000" d="M0 0h1023.878v340.075h-1023.878z"/><path fill="#429f00" d="M0 340.075h1023.878v171.869h-1023.878z"/><path fill="#fff" d="M0 0h113.355v511.934h-113.355z"/><g fill="#b20000"><path d="M5.397 8.671h5.397v8.679h-5.397zm16.195 0h16.194v8.679h-16.194zm5.392-8.681h5.397v8.679h-5.397zm26.996 0h5.397v8.679h-5.397zm21.586 8.681h16.194v8.679h-16.194zm5.409-8.681h5.397v8.679h-5.397zM16.199 17.348h10.798v8.679h-10.799zm16.195 0h10.795v8.679h-10.795zm37.782 0h10.795v8.679h-10.795zm16.192 0h10.798v8.679h-10.798zm-75.577 8.679h10.797v8.677h-10.797zm26.996 0h10.795v8.677h-10.795zm26.995 0h10.797v8.677h-10.797zm26.98 0h10.797v8.677h-10.797zm10.802-17.356h5.397v8.679h-5.397zm-97.166 26.033h10.797v8.677h-10.795zm37.782 0h10.797v8.677h-10.797zm53.991 0h10.797v8.677h-10.798zm-86.379 26.029h10.797v8.679h-10.797zm5.409 8.679h10.798v8.676h-10.799zm21.587-8.679h10.795v8.679h-10.795zm-5.392 8.679h10.795v8.676h-10.795zm-10.802 8.676h16.194v8.677h-16.194zM26.985 86.764h5.397v8.679h-5.397zm37.797-26.029h10.797v8.677h-10.797zm5.394 8.677h10.795v8.676h-10.795zm21.585-8.679h10.797v8.679h-10.797zm-5.393 8.679h10.798v8.676h-10.798zm-10.801 8.676h16.194v8.677h-16.194zM80.976 86.764h5.397v8.679h-5.397zm-26.995-8.676h5.397v8.677h-5.397zm-53.976 0h5.397v8.677h-5.397zm107.95 0h5.397v8.677h-5.397zm-80.971 43.385h5.397v8.677h-5.397zM21.593 130.15h16.194v8.677h-16.194zm-5.393 8.677h26.99v8.677h-26.989zm64.777-17.353h5.397v8.677h-5.397zM75.567 130.15h16.194v8.677h-16.194zm-5.391 8.677h26.99v8.677h-26.99zm5.391 43.385h26.991v8.677h-26.991zm-10.785-34.708h37.786v8.679h-37.786zm-53.991 0h37.786v8.679h-37.785zm5.409 43.385h16.195v8.677h-16.196zm-5.409-8.677h26.991v8.677h-26.991zm75.577-17.354h26.992v8.677h-26.992zm-5.392 26.031h16.194v8.677h-16.194zM21.593 199.565h5.397v8.679h-5.397zm64.776 0h5.397v8.679h-5.397zm-86.363-34.707h26.992v8.677h-26.993zm48.581 17.354h16.195v8.677h-16.195zm5.394 8.677h5.397v8.677h-5.397zm-16.194-26.031h37.787v8.677h-37.788zm21.586-130.154h10.797v8.677h-10.797zM48.587 43.38h16.195v8.677h-16.195zm-5.408 8.677h10.797v8.679h-10.797zm16.194 0h10.797v8.679h-10.797zm-59.368-8.677h10.797v8.677h-10.797zm5.392 8.677h10.797v8.679h-10.795zm97.166-8.677h10.797v8.677h-10.797zm-5.393 8.677h10.797v8.679h-10.798zm-97.165 78.092h5.397v8.677h-5.397zm107.95 0h5.397v8.677h-5.397zm-59.369 69.415h16.195v8.679h-16.195zM43.179 208.243h10.797v8.677h-10.797zm16.194 0h10.797v8.677h-10.797zm-21.586 8.677h10.795v8.677h-10.795zm26.995 0h10.797v8.677h-10.797zM32.394 225.595h10.795v8.679h-10.795zm37.782 0h10.795v8.679h-10.795zm-43.191 8.679h10.797v8.677h-10.797zm48.582 0h10.797v8.677h-10.797zM16.199 242.95h16.195v8.677h-16.196zm64.777 0h16.194v8.677h-16.194zM91.761 234.274h10.797v8.677h-10.797zm5.409-8.679h10.797v8.679h-10.798zM102.563 216.92h10.797v8.677h-10.797zm-91.773 17.354h10.797v8.677h-10.797zm-5.393-8.679h10.797v8.679h-10.795zM.005 216.92h10.797v8.677h-10.797zm21.587 34.707h5.397v8.677h-5.397zm64.776 0h5.397v8.677h-5.397zm-32.387-26.032h5.397v8.679h-5.397zm-16.194 26.032h5.397v8.677h-5.397zm32.389 0h5.397v8.677h-5.397zm-16.195 0h5.397v8.677h-5.397zm-53.976 0h5.397v8.677h-5.397zm107.95 0h5.397v8.677h-5.397zm-53.975-121.478h5.397v8.677h-5.397zm-26.996-86.77h5.397v8.677h-5.397zm53.991 0h5.397v8.677h-5.397zm-32.389 60.738h16.195v8.679h-16.195zM37.787 112.796h16.194v8.679h-16.194zM43.179 121.474h5.397v8.677h-5.397zm-10.784-17.355h10.795v8.679h-10.795zM37.787 95.442h16.194v8.677h-16.194zM43.179 86.764h5.397v8.679h-5.397zm16.194 8.678h16.194v8.677h-16.194zM64.782 86.764h5.397v8.679h-5.397zm5.394 17.354h10.795v8.679h-10.795zM59.373 112.796h16.194v8.679h-16.194zM64.782 121.474h5.397v8.677h-5.397zm21.586-17.355h10.798v8.679h-10.798zM91.761 95.442h16.194v8.677h-16.194zM102.563 104.118h10.797v8.679h-10.797zM91.761 112.796h16.194v8.679h-16.194zM97.17 121.474h5.397v8.677h-5.397zm0-34.709h5.397v8.679h-5.397zm-97.165 17.354h10.797v8.679h-10.797zM5.397 95.442h16.195v8.677h-16.195zM16.199 104.118h10.798v8.679h-10.799zM5.397 112.796h16.195v8.679h-16.195zM10.791 121.474h5.397v8.677h-5.397zm0-34.709h5.397v8.679h-5.397zm-5.393 69.416h21.593v8.677h-21.593zm26.997 0h21.589v8.677h-21.589zm26.979 0h21.593v8.677h-21.593zm26.995 0h21.593v8.677h-21.593zm-43.189 17.353h26.991v8.679h-26.991zm-37.782 0h26.991v8.679h-26.991zm75.579 0h26.991v8.679h-26.992zm26.98 34.709h5.397v8.677h-5.397zm-107.95 0h5.397v8.677h-5.397zm5.392 295.019h5.397v-8.677h-5.397zm16.195 0h16.194v-8.677h-16.194zM26.985 511.931h5.397v-8.677h-5.397zm26.996 0h5.397v-8.677h-5.397zm21.586-8.669h16.194v-8.677h-16.194zM80.976 511.931h5.397v-8.677h-5.397zm-64.777-17.35h10.798v-8.677h-10.799zm16.195 0h10.795v-8.677h-10.795zm37.782 0h10.795v-8.677h-10.795zm16.192 0h10.798v-8.677h-10.798zm-48.581-8.681h10.795v-8.677h-10.795zm26.995 0h10.797v-8.677h-10.797zm26.98 0h10.797v-8.677h-10.797zm10.802 17.362h5.397v-8.677h-5.397zm-97.166-26.031h10.797v-8.677h-10.795zM43.179 477.231h10.797v-8.677h-10.797zm53.991 0h10.797v-8.677h-10.798zm-86.379-26.03h10.797v-8.679h-10.797zm5.409-8.682h10.798v-8.677h-10.799zm21.587 8.682h10.795v-8.679h-10.795zm-5.392-8.682h10.795v-8.677h-10.795zm-10.802-8.681h16.194v-8.677h-16.194zM26.985 425.169h5.397v-8.677h-5.397zm37.797 26.032h10.797v-8.679h-10.797zm5.394-8.682h10.795v-8.677h-10.795zm21.585 8.682h10.797v-8.679h-10.797zm-5.393-8.682h10.798v-8.677h-10.798zm-10.801-8.681h16.194v-8.677h-16.194zM80.976 425.169h5.397v-8.677h-5.397zm-26.995 8.669h5.397v-8.677h-5.397zm-53.976 0h5.397v-8.677h-5.397zm107.95 0h5.397v-8.677h-5.397zm-80.971-43.38h5.397v-8.679h-5.397zM21.593 381.788h16.194v-8.679h-16.194zm-5.393-8.682h26.99v-8.677h-26.989zm64.777 17.351h5.397v-8.679h-5.397zM75.567 381.788h16.194v-8.679h-16.194zm-5.391-8.682h26.99v-8.677h-26.99zm5.391-43.38h26.991v-8.679h-26.991zm-10.785 34.7h37.786v-8.679h-37.786zm-53.991 0h37.786v-8.679h-37.785zm5.409-43.381h16.195v-8.681h-16.196zm-5.409 8.681h26.991v-8.679h-26.991zm75.577 17.35h26.992v-8.679h-26.992zm-5.392-26.031h16.194v-8.679h-16.194zm-80.971 26.031h26.992v-8.679h-26.993zm48.581-17.35h16.195v-8.679h-16.195zm5.394-8.681h5.397v-8.679h-5.397zm-16.194 26.031h37.787v-8.679h-37.788zm21.586 130.155h10.797v-8.677h-10.797zm-10.786-8.682h16.195v-8.676h-16.195zm-5.408-8.679h10.797v-8.679h-10.797zm16.194 0h10.797v-8.679h-10.797zm-59.368 8.679h10.797v-8.676h-10.797zm5.392-8.679h10.797v-8.679h-10.795zm97.166 8.679h10.797v-8.676h-10.797zm-5.393-8.679h10.797v-8.679h-10.798zm-97.165-78.081h5.397v-8.679h-5.397zm107.95 0h5.397v-8.679h-5.397zm-64.777-78.094h10.797v-8.679h-10.797zm16.194 0h10.797v-8.679h-10.797zm-21.586-8.681h10.795v-8.679h-10.795zm26.995 0h10.797v-8.679h-10.797zm-32.387-8.681h10.795v-8.679h-10.795zm37.782 0h10.795v-8.679h-10.795zM26.985 277.664h10.797v-8.679h-10.797zm48.582 0h10.797v-8.679h-10.797zm-59.368-8.681h16.195v-8.679h-16.196zm64.777 0h16.194v-8.679h-16.194zm10.785 8.681h10.797v-8.679h-10.797zM97.17 286.333h10.797v-8.679h-10.798zm5.393 8.681h10.797v-8.679h-10.797zm-91.773-17.35h10.797v-8.679h-10.797zM5.397 286.333h10.797v-8.679h-10.795zm-5.392 8.681h10.797v-8.679h-10.797zm21.587-34.709h5.397v-8.677h-5.397zm32.388 26.028h5.397v-8.679h-5.397zm0 95.456h5.397v-8.679h-5.397zm-26.996 86.76h5.397v-8.676h-5.397zm53.991 0h5.397v-8.676h-5.397zm-32.389-60.73h16.195v-8.677h-16.195zm-10.8-8.682h16.194v-8.676h-16.194zm5.392-8.679h5.397v-8.679h-5.397zm-10.784 17.361h10.795v-8.677h-10.795zM37.787 416.487h16.194v-8.677h-16.194zm5.392 8.681h5.397v-8.677h-5.397zm16.194-8.681h16.194v-8.677h-16.194zm5.409 8.681h5.397v-8.677h-5.397zM70.176 407.819h10.795v-8.677h-10.795zm-10.803-8.682h16.194v-8.676h-16.194zm5.409-8.679h5.397v-8.679h-5.397zm21.586 17.361h10.798v-8.677h-10.798zM91.761 416.487h16.194v-8.677h-16.194zM102.563 407.819h10.797v-8.677h-10.797zm-10.802-8.682h16.194v-8.676h-16.194zm5.409-8.679h5.397v-8.679h-5.397zm0 34.711h5.397v-8.677h-5.397zm-97.165-17.35h10.797v-8.677h-10.797zM5.397 416.487h16.195v-8.677h-16.195zM16.199 407.819h10.798v-8.677h-10.799zm-10.802-8.682h16.195v-8.676h-16.195zm5.393-8.679h5.397v-8.679h-5.397zm0 34.711h5.397v-8.677h-5.397zm-5.393-69.412h21.593v-8.677h-21.593zm26.997 0h21.589v-8.677h-21.589zm26.979 0h21.593v-8.677h-21.593zm26.995 0h21.593v-8.677h-21.593zm-43.189-17.361h26.991v-8.679h-26.991zm-37.782 0h26.991v-8.679h-26.991zm75.579 0h26.991v-8.679h-26.992zm26.98-34.7h5.397v-8.679h-5.397zm-107.95 0h5.397v-8.679h-5.397zm48.581-43.39h5.397v8.679h-5.397zm10.786 0h5.397v8.679h-5.397zm0-17.354h5.397v8.677h-5.397zm-10.786 0h5.397v8.677h-5.397zm-37.796 234.281h10.797v8.679h-10.797zm75.577-164.867h5.397v-8.679h-5.397zm-64.776 0h5.397v-8.679h-5.397zm26.992-8.673h16.194v8.676h-16.194z"/></g></g></svg>

<svg xmlns="http://www.w3.org/2000/svg" width="512" height="512" viewBox="0 0 512 512">
	<path fill="#B20000" d="M0,0h1023.9v340.1H0V0z"/>
	<path fill="#429F00" d="M0,340.1h1023.9v171.9H0V340.1z"/>
	<path fill="#FFFFFF" d="M0,0h113.4v511.9H0V0z"/>
	<path fill="#B20000" d="M5.4,8.7h5.4v8.7H5.4V8.7z M21.6,8.7h16.2v8.7H21.6V8.7z M27,0h5.4v8.7H27L27,0z M54,0h5.4v8.7H54V0z M75.6,8.7h16.2v8.7H75.6V8.7z M81,0h5.4v8.7H81V0z M16.2,17.3H27V26H16.2L16.2,17.3z M32.4,17.3h10.8V26H32.4V17.3z M70.2,17.3H81V26H70.2V17.3z M86.4,17.3h10.8V26H86.4V17.3z M10.8,26h10.8v8.7H10.8L10.8,26z M37.8,26h10.8v8.7H37.8V26z M64.8,26h10.8v8.7H64.8V26z M91.8,26h10.8v8.7H91.8V26z M102.6,8.7h5.4v8.7h-5.4V8.7z M5.4,34.7h10.8v8.7H5.4L5.4,34.7z M43.2,34.7H54v8.7H43.2V34.7z M97.2,34.7H108v8.7H97.2L97.2,34.7z M10.8,60.7h10.8v8.7H10.8L10.8,60.7z M16.2,69.4H27v8.7H16.2L16.2,69.4z M37.8,60.7h10.8v8.7H37.8V60.7z M32.4,69.4h10.8v8.7H32.4V69.4z M21.6,78.1h16.2v8.7H21.6L21.6,78.1z M27,86.8h5.4v8.7H27V86.8z M64.8,60.7h10.8v8.7H64.8V60.7z M70.2,69.4H81v8.7H70.2V69.4z M91.8,60.7h10.8v8.7H91.8V60.7z M86.4,69.4h10.8v8.7H86.4V69.4z M75.6,78.1h16.2v8.7H75.6V78.1z M81,86.8h5.4v8.7H81V86.8z M54,78.1h5.4v8.7H54V78.1z M0,78.1h5.4v8.7H0V78.1z M108,78.1h5.4v8.7H108V78.1z M27,121.5h5.4v8.7H27V121.5z M21.6,130.1h16.2v8.7H21.6L21.6,130.1z M16.2,138.8h27v8.7h-27L16.2,138.8z M81,121.5h5.4v8.7H81V121.5z M75.6,130.1h16.2v8.7H75.6V130.1z M70.2,138.8h27v8.7h-27V138.8z M75.6,182.2h27v8.7h-27V182.2z M64.8,147.5h37.8v8.7H64.8V147.5z M10.8,147.5h37.8v8.7H10.8L10.8,147.5z M16.2,190.9h16.2v8.7H16.2L16.2,190.9z M10.8,182.2h27v8.7h-27L10.8,182.2z M86.4,164.9h27v8.7h-27V164.9z M81,190.9h16.2v8.7H81V190.9z M21.6,199.6H27v8.7h-5.4V199.6z M86.4,199.6h5.4v8.7h-5.4V199.6z M0,164.9h27v8.7H0L0,164.9z M48.6,182.2h16.2v8.7H48.6V182.2z M54,190.9h5.4v8.7H54V190.9z M37.8,164.9h37.8v8.7H37.8L37.8,164.9z M59.4,34.7h10.8v8.7H59.4L59.4,34.7z M48.6,43.4h16.2v8.7H48.6L48.6,43.4z M43.2,52.1H54v8.7H43.2V52.1z M59.4,52.1h10.8v8.7H59.4L59.4,52.1z M0,43.4h10.8v8.7H0V43.4z M5.4,52.1h10.8v8.7H5.4L5.4,52.1z M102.6,43.4h10.8v8.7h-10.8V43.4z M97.2,52.1H108v8.7H97.2L97.2,52.1z M0,130.1h5.4v8.7H0V130.1z M108,130.1h5.4v8.7H108V130.1z M48.6,199.6h16.2v8.7H48.6L48.6,199.6z M43.2,208.2H54v8.7H43.2V208.2z M59.4,208.2h10.8v8.7H59.4L59.4,208.2z M37.8,216.9h10.8v8.7H37.8V216.9z M64.8,216.9h10.8v8.7H64.8V216.9z M32.4,225.6h10.8v8.7H32.4L32.4,225.6z M70.2,225.6H81v8.7H70.2V225.6z M27,234.3h10.8v8.7H27V234.3z M75.6,234.3h10.8v8.7H75.6V234.3z M16.2,242.9h16.2v8.7H16.2L16.2,242.9z M81,242.9h16.2v8.7H81V242.9z M91.8,234.3h10.8v8.7H91.8V234.3z M97.2,225.6H108v8.7H97.2L97.2,225.6z M102.6,216.9h10.8v8.7h-10.8V216.9z M10.8,234.3h10.8v8.7H10.8L10.8,234.3z M5.4,225.6h10.8v8.7H5.4L5.4,225.6z M0,216.9h10.8v8.7H0L0,216.9z M21.6,251.6H27v8.7h-5.4V251.6z M86.4,251.6h5.4v8.7h-5.4V251.6z M54,225.6h5.4v8.7H54V225.6z M37.8,251.6h5.4v8.7h-5.4V251.6z M70.2,251.6h5.4v8.7h-5.4V251.6z M54,251.6h5.4v8.7H54V251.6z M0,251.6h5.4v8.7H0V251.6z M108,251.6h5.4v8.7H108V251.6z M54,130.1h5.4v8.7H54V130.1z M27,43.4h5.4v8.7H27L27,43.4z M81,43.4h5.4v8.7H81V43.4z M48.6,104.1h16.2v8.7H48.6V104.1z M37.8,112.8H54v8.7H37.8V112.8z M43.2,121.5h5.4v8.7h-5.4V121.5z M32.4,104.1h10.8v8.7H32.4L32.4,104.1z M37.8,95.4H54v8.7H37.8V95.4z M43.2,86.8h5.4v8.7h-5.4V86.8z M59.4,95.4h16.2v8.7H59.4V95.4z M64.8,86.8h5.4v8.7h-5.4V86.8z M70.2,104.1H81v8.7H70.2V104.1z M59.4,112.8h16.2v8.7H59.4V112.8z M64.8,121.5h5.4v8.7h-5.4V121.5z M86.4,104.1h10.8v8.7H86.4V104.1z M91.8,95.4H108v8.7H91.8V95.4z M102.6,104.1h10.8v8.7h-10.8V104.1z M91.8,112.8H108v8.7H91.8V112.8z M97.2,121.5h5.4v8.7h-5.4V121.5z M97.2,86.8h5.4v8.7h-5.4V86.8z M0,104.1h10.8v8.7H0V104.1z M5.4,95.4h16.2v8.7H5.4L5.4,95.4z M16.2,104.1H27v8.7H16.2L16.2,104.1z M5.4,112.8h16.2v8.7H5.4L5.4,112.8z M10.8,121.5h5.4v8.7h-5.4V121.5z M10.8,86.8h5.4v8.7h-5.4V86.8z M5.4,156.2H27v8.7H5.4L5.4,156.2z M32.4,156.2H54v8.7H32.4V156.2z M59.4,156.2H81v8.7H59.4V156.2z M86.4,156.2H108v8.7H86.4V156.2z M43.2,173.5h27v8.7h-27L43.2,173.5z M5.4,173.5h27v8.7h-27L5.4,173.5z M81,173.5h27v8.7H81L81,173.5z M108,208.2h5.4v8.7H108V208.2z M0,208.2h5.4v8.7H0V208.2z M5.4,503.3h5.4v-8.7H5.4L5.4,503.3z M21.6,503.3h16.2v-8.7H21.6L21.6,503.3z M27,511.9h5.4v-8.7H27V511.9z M54,511.9h5.4v-8.7H54V511.9z M75.6,503.3h16.2v-8.7H75.6V503.3z M81,511.9h5.4v-8.7H81V511.9z M16.2,494.6H27v-8.7H16.2L16.2,494.6z M32.4,494.6h10.8v-8.7H32.4V494.6z M70.2,494.6H81v-8.7H70.2V494.6z M86.4,494.6h10.8v-8.7H86.4V494.6z M37.8,485.9h10.8v-8.7H37.8V485.9z M64.8,485.9h10.8v-8.7H64.8V485.9z M91.8,485.9h10.8v-8.7H91.8V485.9z M102.6,503.3h5.4v-8.7h-5.4V503.3z M5.4,477.2h10.8v-8.7H5.4L5.4,477.2z M43.2,477.2H54v-8.7H43.2V477.2z M97.2,477.2H108v-8.7H97.2L97.2,477.2z M10.8,451.2h10.8v-8.7H10.8L10.8,451.2z M16.2,442.5H27v-8.7H16.2L16.2,442.5z M37.8,451.2h10.8v-8.7H37.8V451.2z M32.4,442.5h10.8v-8.7H32.4V442.5z M21.6,433.8h16.2v-8.7H21.6L21.6,433.8z M27,425.2h5.4v-8.7H27V425.2z M64.8,451.2h10.8v-8.7H64.8V451.2z M70.2,442.5H81v-8.7H70.2V442.5z M91.8,451.2h10.8v-8.7H91.8V451.2z M86.4,442.5h10.8v-8.7H86.4V442.5z M75.6,433.8h16.2v-8.7H75.6V433.8z M81,425.2h5.4v-8.7H81V425.2z M54,433.8h5.4v-8.7H54V433.8z M0,433.8h5.4v-8.7H0V433.8z M108,433.8h5.4v-8.7H108V433.8z M27,390.5h5.4v-8.7H27V390.5z M21.6,381.8h16.2v-8.7H21.6L21.6,381.8z M16.2,373.1h27v-8.7h-27L16.2,373.1z M81,390.5h5.4v-8.7H81V390.5z M75.6,381.8h16.2v-8.7H75.6V381.8z M70.2,373.1h27v-8.7h-27V373.1z M75.6,329.7h27V321h-27V329.7z M64.8,364.4h37.8v-8.7H64.8V364.4z M10.8,364.4h37.8v-8.7H10.8L10.8,364.4z M16.2,321h16.2v-8.7H16.2L16.2,321z M10.8,329.7h27V321h-27L10.8,329.7z M86.4,347.1h27v-8.7h-27V347.1z M81,321h16.2v-8.7H81V321z M0,347.1h27v-8.7H0L0,347.1z M48.6,329.7h16.2V321H48.6V329.7z M54,321h5.4v-8.7H54V321z M37.8,347.1h37.8v-8.7H37.8L37.8,347.1z M59.4,477.2h10.8v-8.7H59.4L59.4,477.2z M48.6,468.5h16.2v-8.7H48.6L48.6,468.5z M43.2,459.9H54v-8.7H43.2V459.9z M59.4,459.9h10.8v-8.7H59.4L59.4,459.9z M0,468.5h10.8v-8.7H0V468.5z M5.4,459.9h10.8v-8.7H5.4L5.4,459.9z M102.6,468.5h10.8v-8.7h-10.8V468.5z M97.2,459.9H108v-8.7H97.2L97.2,459.9z M0,381.8h5.4v-8.7H0V381.8z M108,381.8h5.4v-8.7H108V381.8z M43.2,303.7H54V295H43.2V303.7z M59.4,303.7h10.8V295H59.4L59.4,303.7z M37.8,295h10.8v-8.7H37.8V295z M64.8,295h10.8v-8.7H64.8V295z M32.4,286.3h10.8v-8.7H32.4V286.3z M70.2,286.3H81v-8.7H70.2V286.3z M27,277.7h10.8V269H27V277.7z M75.6,277.7h10.8V269H75.6V277.7z M16.2,269h16.2v-8.7H16.2L16.2,269z M81,269h16.2v-8.7H81V269z M91.8,277.7h10.8V269H91.8V277.7z M97.2,286.3H108v-8.7H97.2L97.2,286.3z M102.6,295h10.8v-8.7h-10.8V295z M10.8,277.7h10.8V269H10.8L10.8,277.7z M5.4,286.3h10.8v-8.7H5.4L5.4,286.3z M0,295h10.8v-8.7H0L0,295z M21.6,260.3H27v-8.7h-5.4V260.3z M54,286.3h5.4v-8.7H54V286.3z M54,381.8h5.4v-8.7H54V381.8z M27,468.5h5.4v-8.7H27L27,468.5z M81,468.5h5.4v-8.7H81V468.5z M48.6,407.8h16.2v-8.7H48.6V407.8z M37.8,399.1H54v-8.7H37.8V399.1z M43.2,390.5h5.4v-8.7h-5.4V390.5z M32.4,407.8h10.8v-8.7H32.4L32.4,407.8z M37.8,416.5H54v-8.7H37.8V416.5z M43.2,425.2h5.4v-8.7h-5.4V425.2z M59.4,416.5h16.2v-8.7H59.4V416.5z M64.8,425.2h5.4v-8.7h-5.4V425.2z M70.2,407.8H81v-8.7H70.2V407.8z M59.4,399.1h16.2v-8.7H59.4V399.1z M64.8,390.5h5.4v-8.7h-5.4V390.5z M86.4,407.8h10.8v-8.7H86.4V407.8z M91.8,416.5H108v-8.7H91.8V416.5z M102.6,407.8h10.8v-8.7h-10.8V407.8z M91.8,399.1H108v-8.7H91.8V399.1z M97.2,390.5h5.4v-8.7h-5.4V390.5z M97.2,425.2h5.4v-8.7h-5.4V425.2z M0,407.8h10.8v-8.7H0V407.8z M5.4,416.5h16.2v-8.7H5.4L5.4,416.5z M16.2,407.8H27v-8.7H16.2L16.2,407.8z M5.4,399.1h16.2v-8.7H5.4V399.1z M10.8,390.5h5.4v-8.7h-5.4V390.5z M10.8,425.2h5.4v-8.7h-5.4V425.2z M5.4,355.8H27v-8.7H5.4L5.4,355.8z M32.4,355.8H54v-8.7H32.4V355.8z M59.4,355.8H81v-8.7H59.4L59.4,355.8z M86.4,355.8H108v-8.7H86.4V355.8z M43.2,338.4h27v-8.7h-27L43.2,338.4z M5.4,338.4h27v-8.7h-27L5.4,338.4z M81,338.4h27v-8.7H81L81,338.4z M108,303.7h5.4V295H108V303.7z M0,303.7h5.4V295H0V303.7z M48.6,260.3H54v8.7h-5.4V260.3z M59.4,260.3h5.4v8.7h-5.4V260.3z M59.4,243h5.4v8.7h-5.4V243z M48.6,243H54v8.7h-5.4V243z M10.8,477.2h10.8v8.7H10.8L10.8,477.2z M86.4,312.4h5.4v-8.7h-5.4V312.4z M21.6,312.4H27v-8.7h-5.4V312.4z M48.6,303.7h16.2v8.7H48.6L48.6,303.7z"/>
</svg>
